X:433
T:Easter Eve. (p).1701.PLFD.433
M:4/4
L:1/8
Q:1/2=80
S:Playford, Dancing Master,11th Ed.,1701.
O:England
Z:Chris Partington.
K:Bb
g2fe/f/g2d2|b2agf2d2|g2d2cdcB|A6f2|
g2d2d2cB|ABAGF2d2|B2AGA2^F2|G8:|
|:B2d2-d2cB|ABc2c2d2|B2AB cBAG|^F6d2|
e2c2f2d2|b2agf2d2|e2c2d2^f2|g8:|
